X:146
T: WALDESLUST WALDESLUST O WIE EINSAM
N: B0175
O: Europa, Mitteleuropa, Deutschland, Hunsrueck; Kreis Wetzlar
R: Natur - Lied
M: 3/4
L: 1/16
K: Eb
 | B3AG4z4 | B3AG4z4 |
B2e2d6c2 | c3BB2
e2f2e2 | e3dd2e2d2c2 | c3BB2
B2c2B2 | B3AA2c2B2A2 | G4z8

@@@ Tune index: 1949
